; HEADER_BLOCK_START
; generated by Creality_Print V6.3.0.3417 on 2026-02-10 at 15:34:32
; total layer number: 45
; filament_density: 1.24
; filament_diameter: 1.75
; max_z_height: 9.00
; creality_uuid: f526eecc-5994-4b91-8f65-a9a5ee34cfde
; HEADER_BLOCK_END

; MINX = 47.55
; MINY = 51.37
; MINZ = 0.00
; MAXX = 154.43
; MAXY = 167.90
; MAXZ = 9.09

; multicolor_method = 0 
; THUMBNAIL_BLOCK_START

;
; THUMBNAIL_BLOCK_END

; THUMBNAIL_BLOCK_START

;
; THUMBNAIL_BLOCK_END

; external perimeters extrusion width = 0.42mm
; perimeters extrusion width = 0.45mm
; infill extrusion width = 0.45mm
; solid infill extrusion width = 0.42mm
; top infill extrusion width = 0.42mm
; support material extrusion width = 0.42mm
; first layer extrusion width = 0.50mm

; external perimeters extrusion width = 0.42mm
; perimeters extrusion width = 0.45mm
; infill extrusion width = 0.45mm
; solid infill extrusion width = 0.42mm
; top infill extrusion width = 0.42mm
; support material extrusion width = 0.42mm
; first layer extrusion width = 0.50mm

; external perimeters extrusion width = 0.42mm
; perimeters extrusion width = 0.45mm
; infill extrusion width = 0.45mm
; solid infill extrusion width = 0.42mm
; top infill extrusion width = 0.42mm
; support material extrusion width = 0.42mm
; first layer extrusion width = 0.50mm

; external perimeters extrusion width = 0.42mm
; perimeters extrusion width = 0.45mm
; infill extrusion width = 0.45mm
; solid infill extrusion width = 0.42mm
; top infill extrusion width = 0.42mm
; support material extrusion width = 0.42mm
; first layer extrusion width = 0.50mm

; external perimeters extrusion width = 0.42mm
; perimeters extrusion width = 0.45mm
; infill extrusion width = 0.45mm
; solid infill extrusion width = 0.42mm
; top infill extrusion width = 0.42mm
; support material extrusion width = 0.42mm
; first layer extrusion width = 0.50mm

; external perimeters extrusion width = 0.42mm
; perimeters extrusion width = 0.45mm
; infill extrusion width = 0.45mm
; solid infill extrusion width = 0.42mm
; top infill extrusion width = 0.42mm
; support material extrusion width = 0.42mm
; first layer extrusion width = 0.50mm

; external perimeters extrusion width = 0.42mm
; perimeters extrusion width = 0.45mm
; infill extrusion width = 0.45mm
; solid infill extrusion width = 0.42mm
; top infill extrusion width = 0.42mm
; support material extrusion width = 0.42mm
; first layer extrusion width = 0.50mm

; external perimeters extrusion width = 0.42mm
; perimeters extrusion width = 0.45mm
; infill extrusion width = 0.45mm
; solid infill extrusion width = 0.42mm
; top infill extrusion width = 0.42mm
; support material extrusion width = 0.42mm
; first layer extrusion width = 0.50mm

; external perimeters extrusion width = 0.42mm
; perimeters extrusion width = 0.45mm
; infill extrusion width = 0.45mm
; solid infill extrusion width = 0.42mm
; top infill extrusion width = 0.42mm
; support material extrusion width = 0.42mm
; first layer extrusion width = 0.50mm

; external perimeters extrusion width = 0.42mm
; perimeters extrusion width = 0.45mm
; infill extrusion width = 0.45mm
; solid infill extrusion width = 0.42mm
; top infill extrusion width = 0.42mm
; support material extrusion width = 0.42mm
; first layer extrusion width = 0.50mm

; EXECUTABLE_BLOCK_START
EXCLUDE_OBJECT_DEFINE NAME=4.5mm-prop.stl_id_0_copy_0 CENTER=70.0176,159.926 POLYGON=[[47.5455,158.034],[47.5503,158.003],[47.8142,157.605],[47.8345,157.588],[47.8834,157.569],[47.9163,157.563],[47.9431,157.559],[49.2317,157.475],[50.5084,157.399],[51.1127,157.366],[69.8942,156.402],[77.8931,156.101],[78.6672,156.074],[79.6807,156.073],[81.1791,156.137],[82.2318,156.226],[83.3331,156.359],[84.5847,156.546],[85.2357,156.662],[86.2926,156.874],[87.4699,157.143],[88.6016,157.438],[90.5025,157.995],[92.0963,158.512],[92.2086,158.594],[92.3374,158.749],[92.4403,159.056],[92.4623,159.538],[92.4757,160.127],[92.485,160.742],[92.4898,161.213],[92.4897,161.575],[92.4718,161.74],[92.4043,161.974],[92.2054,162.24],[92.1118,162.285],[90.6546,162.641],[88.7026,163.067],[87.4065,163.299],[86.0322,163.497],[84.7543,163.637],[82.8351,163.76],[81.7204,163.779],[69.8434,163.597],[69.5838,163.577],[69.3247,163.536],[48.1603,159.555],[48.1191,159.546],[48.0342,159.499],[47.9564,159.401],[47.7899,159.154],[47.7087,158.831],[47.5455,158.034]]
EXCLUDE_OBJECT_DEFINE NAME=4.5mm-prop.stl_id_1_copy_0 CENTER=70.0176,135.219 POLYGON=[[47.5455,133.327],[47.5503,133.296],[47.8142,132.898],[47.8345,132.881],[47.8834,132.863],[47.9163,132.856],[47.9431,132.852],[49.2317,132.768],[50.5084,132.692],[51.1127,132.659],[69.8942,131.695],[77.8931,131.395],[78.6672,131.367],[79.6807,131.366],[81.1791,131.43],[82.2318,131.519],[83.3331,131.652],[84.5847,131.839],[85.2357,131.955],[86.2926,132.167],[87.4699,132.436],[88.6016,132.731],[90.5025,133.288],[92.0963,133.805],[92.2086,133.887],[92.3374,134.042],[92.4403,134.349],[92.4623,134.831],[92.4757,135.42],[92.485,136.035],[92.4898,136.506],[92.4897,136.868],[92.4718,137.033],[92.4043,137.268],[92.2054,137.533],[92.1118,137.578],[90.6546,137.934],[88.7026,138.36],[87.4065,138.592],[86.0322,138.79],[84.7543,138.93],[82.8351,139.053],[81.7204,139.072],[69.8434,138.89],[69.5838,138.871],[69.3247,138.83],[48.1603,134.849],[48.1191,134.839],[48.0342,134.792],[47.9564,134.694],[47.7899,134.447],[47.7087,134.124],[47.5455,133.327]]
EXCLUDE_OBJECT_DEFINE NAME=4.5mm-prop.stl_id_2_copy_0 CENTER=130.018,114.633 POLYGON=[[107.546,112.741],[107.55,112.71],[107.814,112.312],[107.834,112.295],[107.883,112.276],[107.916,112.27],[107.943,112.266],[109.232,112.182],[110.508,112.105],[111.113,112.073],[129.894,111.109],[137.893,110.808],[138.667,110.781],[139.681,110.78],[141.179,110.844],[142.232,110.933],[143.333,111.066],[144.585,111.253],[145.236,111.369],[146.293,111.58],[147.47,111.85],[148.602,112.145],[150.502,112.702],[152.096,113.219],[152.209,113.301],[152.337,113.455],[152.44,113.763],[152.462,114.245],[152.476,114.834],[152.485,115.449],[152.49,115.92],[152.49,116.281],[152.472,116.447],[152.404,116.681],[152.205,116.947],[152.112,116.992],[150.655,117.347],[148.703,117.774],[147.406,118.006],[146.032,118.204],[144.754,118.344],[142.835,118.467],[141.72,118.486],[129.843,118.304],[129.584,118.284],[129.325,118.243],[108.16,114.262],[108.119,114.253],[108.034,114.206],[107.956,114.108],[107.79,113.86],[107.709,113.538],[107.546,112.741]]
EXCLUDE_OBJECT_DEFINE NAME=4.5mm-prop.stl_id_3_copy_0 CENTER=70.0176,110.512 POLYGON=[[47.5455,108.62],[47.5503,108.589],[47.8142,108.191],[47.8345,108.174],[47.8834,108.156],[47.9163,108.149],[47.9431,108.145],[49.2317,108.061],[50.5084,107.985],[51.1127,107.953],[69.8942,106.988],[77.8931,106.688],[78.6672,106.66],[79.6807,106.659],[81.1791,106.723],[82.2318,106.813],[83.3331,106.945],[84.5847,107.132],[85.2357,107.248],[86.2926,107.46],[87.4699,107.729],[88.6016,108.024],[90.5025,108.581],[92.0963,109.098],[92.2086,109.18],[92.3374,109.335],[92.4403,109.642],[92.4623,110.125],[92.4757,110.713],[92.485,111.328],[92.4898,111.799],[92.4897,112.161],[92.4718,112.326],[92.4043,112.561],[92.2054,112.826],[92.1118,112.871],[90.6546,113.227],[88.7026,113.653],[87.4065,113.885],[86.0322,114.083],[84.7543,114.224],[82.8351,114.346],[81.7204,114.365],[69.8434,114.183],[69.5838,114.164],[69.3247,114.123],[48.1603,110.142],[48.1191,110.132],[48.0342,110.085],[47.9564,109.987],[47.7899,109.74],[47.7087,109.417],[47.5455,108.62]]
EXCLUDE_OBJECT_DEFINE NAME=4.5mm-prop.stl_id_4_copy_0 CENTER=130.018,139.34 POLYGON=[[107.546,137.448],[107.55,137.417],[107.814,137.018],[107.834,137.002],[107.883,136.983],[107.916,136.976],[107.943,136.973],[109.232,136.889],[110.508,136.812],[111.113,136.78],[129.894,135.816],[137.893,135.515],[138.667,135.488],[139.681,135.486],[141.179,135.551],[142.232,135.64],[143.333,135.773],[144.585,135.96],[145.236,136.076],[146.293,136.287],[147.47,136.557],[148.602,136.852],[150.502,137.408],[152.096,137.926],[152.209,138.007],[152.337,138.162],[152.44,138.47],[152.462,138.952],[152.476,139.54],[152.485,140.156],[152.49,140.627],[152.49,140.988],[152.472,141.154],[152.404,141.388],[152.205,141.653],[152.112,141.699],[150.655,142.054],[148.703,142.481],[147.406,142.713],[146.032,142.911],[144.754,143.051],[142.835,143.173],[141.72,143.193],[129.843,143.011],[129.584,142.991],[129.325,142.95],[108.16,138.969],[108.119,138.959],[108.034,138.913],[107.956,138.815],[107.79,138.567],[107.709,138.245],[107.546,137.448]]
EXCLUDE_OBJECT_DEFINE NAME=4.5mm-prop.stl_id_5_copy_0 CENTER=130.018,164.046 POLYGON=[[107.546,162.155],[107.55,162.123],[107.814,161.725],[107.834,161.709],[107.883,161.69],[107.916,161.683],[107.943,161.68],[109.232,161.596],[110.508,161.519],[111.113,161.487],[129.894,160.523],[137.893,160.222],[138.667,160.195],[139.681,160.193],[141.179,160.258],[142.232,160.347],[143.333,160.479],[144.585,160.667],[145.236,160.782],[146.293,160.994],[147.47,161.264],[148.602,161.558],[150.502,162.115],[152.096,162.633],[152.209,162.714],[152.337,162.869],[152.44,163.177],[152.462,163.659],[152.476,164.247],[152.485,164.863],[152.49,165.334],[152.49,165.695],[152.472,165.861],[152.404,166.095],[152.205,166.36],[152.112,166.406],[150.655,166.761],[148.703,167.188],[147.406,167.42],[146.032,167.618],[144.754,167.758],[142.835,167.88],[141.72,167.899],[129.843,167.718],[129.584,167.698],[129.325,167.657],[108.16,163.676],[108.119,163.666],[108.034,163.619],[107.956,163.522],[107.79,163.274],[107.709,162.952],[107.546,162.155]]
EXCLUDE_OBJECT_DEFINE NAME=4.5mm-prop.stl_id_6_copy_0 CENTER=70.0176,85.8052 POLYGON=[[47.5455,83.9136],[47.5503,83.8822],[47.8142,83.4841],[47.8345,83.4674],[47.8834,83.4488],[47.9163,83.4421],[47.9431,83.4386],[49.2317,83.3545],[50.5084,83.2779],[51.1127,83.2457],[69.8942,82.2813],[77.8931,81.9809],[78.6672,81.9534],[79.6807,81.9521],[81.1791,82.0165],[82.2318,82.1057],[83.3331,82.2382],[84.5847,82.4254],[85.2357,82.5413],[86.2926,82.753],[87.4699,83.0223],[88.6016,83.3173],[90.5025,83.8741],[92.0963,84.3915],[92.2086,84.4731],[92.3374,84.628],[92.4403,84.9355],[92.4623,85.4177],[92.4757,86.006],[92.485,86.6214],[92.4898,87.0923],[92.4897,87.454],[92.4718,87.6193],[92.4043,87.8539],[92.2054,88.1191],[92.1118,88.1644],[90.6546,88.5199],[88.7026,88.9465],[87.4065,89.1785],[86.0322,89.3764],[84.7543,89.5166],[82.8351,89.639],[81.7204,89.6582],[69.8434,89.4766],[69.5838,89.4569],[69.3247,89.4159],[48.1603,85.4349],[48.1191,85.4251],[48.0342,85.3783],[47.9564,85.2805],[47.7899,85.033],[47.7087,84.7104],[47.5455,83.9136]]
EXCLUDE_OBJECT_DEFINE NAME=4.5mm-prop.stl_id_7_copy_0 CENTER=131.962,89.9258 POLYGON=[[109.49,88.0342],[109.495,88.0028],[109.758,87.6048],[109.779,87.588],[109.828,87.5694],[109.861,87.5628],[109.887,87.5592],[111.176,87.4751],[112.453,87.3986],[113.057,87.3663],[131.838,86.4019],[139.837,86.1015],[140.611,86.074],[141.625,86.0727],[143.123,86.1371],[144.176,86.2263],[145.277,86.3588],[146.529,86.546],[147.18,86.6619],[148.237,86.8736],[149.414,87.1429],[150.546,87.4379],[152.447,87.9948],[154.04,88.5121],[154.153,88.5938],[154.282,88.7486],[154.384,89.0561],[154.407,89.5383],[154.42,90.1266],[154.429,90.742],[154.434,91.213],[154.434,91.5746],[154.416,91.7399],[154.349,91.9745],[154.15,92.2397],[154.056,92.285],[152.599,92.6405],[150.647,93.0671],[149.351,93.2991],[147.976,93.497],[146.698,93.6373],[144.779,93.7597],[143.665,93.7788],[131.788,93.5972],[131.528,93.5775],[131.269,93.5365],[110.105,89.5555],[110.063,89.5457],[109.978,89.4989],[109.901,89.4011],[109.734,89.1536],[109.653,88.831],[109.49,88.0342]]
EXCLUDE_OBJECT_DEFINE NAME=4.5mm-prop.stl_id_8_copy_0 CENTER=128.073,59.9258 POLYGON=[[105.601,58.0342],[105.606,58.0028],[105.87,57.6048],[105.89,57.588],[105.939,57.5694],[105.972,57.5628],[105.999,57.5592],[107.287,57.4751],[108.564,57.3986],[109.168,57.3663],[127.95,56.4019],[135.949,56.1015],[136.723,56.074],[137.736,56.0727],[139.235,56.1371],[140.288,56.2263],[141.389,56.3588],[142.64,56.546],[143.291,56.6619],[144.348,56.8736],[145.526,57.1429],[146.657,57.4379],[148.558,57.9948],[150.152,58.5121],[150.264,58.5938],[150.393,58.7486],[150.496,59.0561],[150.518,59.5383],[150.531,60.1266],[150.541,60.742],[150.546,61.213],[150.545,61.5746],[150.528,61.7399],[150.46,61.9745],[150.261,62.2397],[150.168,62.285],[148.71,62.6405],[146.758,63.0671],[145.462,63.2991],[144.088,63.497],[142.81,63.6373],[140.891,63.7597],[139.776,63.7788],[127.899,63.5972],[127.64,63.5775],[127.38,63.5365],[106.216,59.5555],[106.175,59.5457],[106.09,59.4989],[106.012,59.4011],[105.846,59.1536],[105.764,58.831],[105.601,58.0342]]
EXCLUDE_OBJECT_DEFINE NAME=4.5mm-prop.stl_id_9_copy_0 CENTER=71.9619,55.2189 POLYGON=[[49.4898,53.3274],[49.4945,53.2959],[49.7584,52.8979],[49.7787,52.8812],[49.8276,52.8625],[49.8606,52.8559],[49.8873,52.8523],[51.1759,52.7682],[52.4526,52.6917],[53.0569,52.6594],[71.8384,51.6951],[79.8374,51.3946],[80.6115,51.3672],[81.6249,51.3659],[83.1233,51.4302],[84.1761,51.5194],[85.2773,51.6519],[86.5289,51.8391],[87.1799,51.955],[88.2368,52.1668],[89.4141,52.4361],[90.5458,52.731],[92.4467,53.2879],[94.0405,53.8052],[94.1528,53.8869],[94.2816,54.0417],[94.3845,54.3492],[94.4066,54.8315],[94.4199,55.4198],[94.4292,56.0352],[94.434,56.5061],[94.4339,56.8677],[94.416,57.033],[94.3485,57.2676],[94.1496,57.5329],[94.056,57.5781],[92.5989,57.9336],[90.6469,58.3602],[89.3507,58.5922],[87.9764,58.7902],[86.6985,58.9304],[84.7793,59.0528],[83.6646,59.0719],[71.7877,58.8903],[71.528,58.8706],[71.269,58.8296],[50.1046,54.8486],[50.0634,54.8388],[49.9784,54.792],[49.9006,54.6943],[49.7341,54.4467],[49.6529,54.1241],[49.4898,53.3274]]
M73 P0 R38
M106 S0
M106 P2 S0
; max_print_temp = 60,220
;TYPE:Custom
START_PRINT EXTRUDER_TEMP=220 BED_TEMP=60
T0
M204 S2000
M104 S220
G1 Z3 F600
M83
G92 E0
G1 Z1 F600
G90
G21
M83 ; use relative distances for extrusion
SET_PRESSURE_ADVANCE ADVANCE=0.05; Override pressure advance value
G1 E-.8 F2100
G1 Z.2 F30000
M106 S0
;LAYER_CHANGE
;Z:0.2
;HEIGHT:0.2
;BEFORE_LAYER_CHANGE
;0.2
G92 E0

;AFTER_LAYER_CHANGE
;0.2
;_SET_FAN_SPEED_CHANGING_LAYER
SET_VELOCITY_LIMIT ACCEL=1000 ACCEL_TO_DECEL=1000
SET_VELOCITY_LIMIT SQUARE_CORNER_VELOCITY=6
; printing object 4.5mm-prop.stl id:0 copy 0
EXCLUDE_OBJECT_START NAME=4.5mm-prop.stl_id_0_copy_0
G1 X54.317 Y156.61 Z.6 F30000
G1 Z.2
G1 E.8 F2100
;TYPE:Support
;WIDTH:0.5
G1 F3600
G1 X52.317 Y156.61 E.07221
G1 X52.317 Y160.364 E.13556
G1 X54.317 Y160.364 E.07221
G1 X54.317 Y161.864 E.05415
G1 X45.063 Y161.864 E.33412
G1 X45.063 Y155.11 E.24386
G1 X54.317 Y155.11 E.33412
G1 X54.317 Y156.541 E.05168
G1 E-.64 F2100
;WIPE_START
G1 F3600
G1 X54.317 Y155.11 E-.10877
G1 X53.748 Y155.11 E-.04323
;WIPE_END
G1 E-.008 F2100
G1 X53.766 Y161.659 Z.6 F30000
G1 Z.2
G1 E.8 F2100
G1 F3600
G1 X53.766 Y160.776 E.03187
G1 X53.258 Y160.776 E.01834
G1 X53.258 Y161.453 E.02445
G1 X52.75 Y161.453 E.01834
G1 X52.75 Y160.776 E.02445
G1 X52.242 Y160.776 E.01834
G1 X52.242 Y161.453 E.02445
G1 X51.734 Y161.453 E.01834
G1 X51.734 Y155.522 E.21415
G1 X52.242 Y155.522 E.01834
G1 X52.242 Y156.199 E.02445
G1 X52.75 Y156.199 E.01834
G1 X52.75 Y155.522 E.02445
G1 X53.258 Y155.522 E.01834
G1 X53.258 Y156.199 E.02445
G1 X53.766 Y156.199 E.01834
G1 X53.766 Y155.316 E.03187
G1 E-.64 F2100
;WIPE_START
G1 F3600
G1 X53.766 Y156.199 E-.06709
G1 X53.258 Y156.199 E-.0386
G1 X53.258 Y155.589 E-.04631
;WIPE_END
G1 E-.008 F2100
G1 X51.227 Y161.659 Z.6 F30000
G1 Z.2
G1 E.8 F2100
G1 F3600
G1 X51.227 Y155.522 E.22158
G1 X50.719 Y155.522 E.01834
G1 X50.719 Y161.453 E.21415
G1 X50.211 Y161.453 E.01834
G1 X50.211 Y155.522 E.21415
G1 X49.703 Y155.522 E.01834
G1 X49.703 Y161.453 E.21415
G1 X49.195 Y161.453 E.01834
G1 X49.195 Y155.522 E.21415
G1 X48.687 Y155.522 E.01834
G1 X48.687 Y161.453 E.21415
G1 X48.179 Y161.453 E.01834
G1 X48.179 Y155.522 E.21415
G1 X47.672 Y155.522 E.01834
G1 X47.672 Y161.453 E.21415
G1 X47.164 Y161.453 E.01834
G1 X47.164 Y155.522 E.21415
G1 X46.656 Y155.522 E.01834
G1 X46.656 Y161.453 E.21415
G1 X46.148 Y161.453 E.01834
G1 X46.148 Y155.522 E.21415
