; HEADER_BLOCK_START
; generated by Creality_Print V6.3.0.3417 on 2026-02-11 at 07:32:57
; total layer number: 34
; filament_density: 1.24
; filament_diameter: 1.75
; max_z_height: 6.00
; creality_uuid: ffdde5a8-17d6-45e1-ba0b-b2009b58ac9c
; HEADER_BLOCK_END

; MINX = 61.50
; MINY = 45.50
; MINZ = 0.00
; MAXX = 162.50
; MAXY = 174.50
; MAXZ = 6.00

; multicolor_method = 0 
; THUMBNAIL_BLOCK_START

;
; THUMBNAIL_BLOCK_END

; THUMBNAIL_BLOCK_START

;
; THUMBNAIL_BLOCK_END

; external perimeters extrusion width = 0.42mm
; perimeters extrusion width = 0.45mm
; infill extrusion width = 0.45mm
; solid infill extrusion width = 0.42mm
; top infill extrusion width = 0.42mm
; support material extrusion width = 0.42mm
; first layer extrusion width = 0.50mm

; external perimeters extrusion width = 0.42mm
; perimeters extrusion width = 0.45mm
; infill extrusion width = 0.45mm
; solid infill extrusion width = 0.42mm
; top infill extrusion width = 0.42mm
; support material extrusion width = 0.42mm
; first layer extrusion width = 0.50mm

; external perimeters extrusion width = 0.42mm
; perimeters extrusion width = 0.45mm
; infill extrusion width = 0.45mm
; solid infill extrusion width = 0.42mm
; top infill extrusion width = 0.42mm
; support material extrusion width = 0.42mm
; first layer extrusion width = 0.50mm

; external perimeters extrusion width = 0.42mm
; perimeters extrusion width = 0.45mm
; infill extrusion width = 0.45mm
; solid infill extrusion width = 0.42mm
; top infill extrusion width = 0.42mm
; support material extrusion width = 0.42mm
; first layer extrusion width = 0.50mm

; external perimeters extrusion width = 0.42mm
; perimeters extrusion width = 0.45mm
; infill extrusion width = 0.45mm
; solid infill extrusion width = 0.42mm
; top infill extrusion width = 0.42mm
; support material extrusion width = 0.42mm
; first layer extrusion width = 0.50mm

; external perimeters extrusion width = 0.42mm
; perimeters extrusion width = 0.45mm
; infill extrusion width = 0.45mm
; solid infill extrusion width = 0.42mm
; top infill extrusion width = 0.42mm
; support material extrusion width = 0.42mm
; first layer extrusion width = 0.50mm

; external perimeters extrusion width = 0.42mm
; perimeters extrusion width = 0.45mm
; infill extrusion width = 0.45mm
; solid infill extrusion width = 0.42mm
; top infill extrusion width = 0.42mm
; support material extrusion width = 0.42mm
; first layer extrusion width = 0.50mm

; external perimeters extrusion width = 0.42mm
; perimeters extrusion width = 0.45mm
; infill extrusion width = 0.45mm
; solid infill extrusion width = 0.42mm
; top infill extrusion width = 0.42mm
; support material extrusion width = 0.42mm
; first layer extrusion width = 0.50mm

; external perimeters extrusion width = 0.42mm
; perimeters extrusion width = 0.45mm
; infill extrusion width = 0.45mm
; solid infill extrusion width = 0.42mm
; top infill extrusion width = 0.42mm
; support material extrusion width = 0.42mm
; first layer extrusion width = 0.50mm

; external perimeters extrusion width = 0.42mm
; perimeters extrusion width = 0.45mm
; infill extrusion width = 0.45mm
; solid infill extrusion width = 0.42mm
; top infill extrusion width = 0.42mm
; support material extrusion width = 0.42mm
; first layer extrusion width = 0.50mm

; EXECUTABLE_BLOCK_START
EXCLUDE_OBJECT_DEFINE NAME=4.5mm-prop.stl_id_0_copy_0 CENTER=140,80 POLYGON=[[117.5,79.194],[117.501,78.504],[117.519,78.337],[117.587,78.098],[117.788,77.824],[117.878,77.775],[119.424,77.259],[121.938,76.531],[123.295,76.209],[125.284,75.839],[126.462,75.684],[127.628,75.57],[128.356,75.525],[128.999,75.502],[130.111,75.5],[149.737,75.501],[151.241,75.508],[152.296,75.564],[153.401,75.666],[154.654,75.828],[155.306,75.934],[156.365,76.134],[157.544,76.396],[158.674,76.689],[160.575,77.255],[162.166,77.792],[162.276,77.896],[162.401,78.101],[162.493,78.521],[162.5,79.149],[162.5,81.108],[162.499,81.489],[162.481,81.656],[162.413,81.895],[162.213,82.17],[162.119,82.221],[160.65,82.71],[158.681,83.301],[157.375,83.634],[155.99,83.932],[154.704,84.156],[152.775,84.391],[151.655,84.465],[150.38,84.5],[129.999,84.497],[128.746,84.486],[127.072,84.379],[125.783,84.225],[124.011,83.934],[122.43,83.592],[121.433,83.335],[120.055,82.936],[119.161,82.655],[117.833,82.202],[117.723,82.098],[117.599,81.893],[117.543,81.716],[117.5,80.988],[117.5,79.194]]
EXCLUDE_OBJECT_DEFINE NAME=4.5mm-prop.stl_id_1_copy_0 CENTER=140,50 POLYGON=[[117.5,49.194],[117.501,48.504],[117.519,48.337],[117.587,48.098],[117.788,47.824],[117.878,47.775],[119.424,47.259],[121.938,46.531],[123.295,46.209],[125.284,45.839],[126.462,45.684],[127.628,45.57],[128.356,45.525],[128.999,45.502],[130.111,45.5],[149.737,45.501],[151.241,45.508],[152.296,45.564],[153.401,45.666],[154.654,45.828],[155.306,45.934],[156.365,46.134],[157.544,46.396],[158.674,46.689],[160.575,47.255],[162.166,47.792],[162.276,47.896],[162.401,48.101],[162.493,48.521],[162.5,49.149],[162.5,51.108],[162.499,51.489],[162.481,51.656],[162.413,51.895],[162.213,52.17],[162.119,52.221],[160.65,52.71],[158.681,53.301],[157.375,53.634],[155.99,53.932],[154.704,54.156],[152.775,54.391],[151.655,54.465],[150.38,54.5],[129.999,54.497],[128.746,54.486],[127.072,54.379],[125.783,54.225],[124.011,53.934],[122.43,53.592],[121.433,53.335],[120.055,52.936],[119.161,52.655],[117.833,52.202],[117.723,52.098],[117.599,51.893],[117.543,51.716],[117.5,50.988],[117.5,49.194]]
EXCLUDE_OBJECT_DEFINE NAME=4.5mm-prop.stl_id_2_copy_0 CENTER=140,110 POLYGON=[[117.5,109.194],[117.501,108.504],[117.519,108.337],[117.587,108.098],[117.788,107.824],[117.878,107.775],[119.424,107.259],[121.938,106.531],[123.295,106.209],[125.284,105.839],[126.462,105.684],[127.628,105.57],[128.356,105.525],[128.999,105.502],[130.111,105.5],[149.737,105.501],[151.241,105.508],[152.296,105.564],[153.401,105.666],[154.654,105.828],[155.306,105.934],[156.365,106.134],[157.544,106.396],[158.674,106.689],[160.575,107.255],[162.166,107.792],[162.276,107.896],[162.401,108.101],[162.493,108.521],[162.5,109.149],[162.5,111.108],[162.499,111.489],[162.481,111.656],[162.413,111.895],[162.213,112.17],[162.119,112.221],[160.65,112.71],[158.681,113.301],[157.375,113.634],[155.99,113.932],[154.704,114.156],[152.775,114.391],[151.655,114.465],[150.38,114.5],[129.999,114.497],[128.746,114.486],[127.072,114.379],[125.783,114.225],[124.011,113.934],[122.43,113.592],[121.433,113.335],[120.055,112.936],[119.161,112.655],[117.833,112.202],[117.723,112.098],[117.599,111.893],[117.543,111.716],[117.5,110.988],[117.5,109.194]]
EXCLUDE_OBJECT_DEFINE NAME=4.5mm-prop.stl_id_3_copy_0 CENTER=140,140 POLYGON=[[117.5,139.194],[117.501,138.504],[117.519,138.337],[117.587,138.098],[117.788,137.824],[117.878,137.775],[119.424,137.259],[121.938,136.531],[123.295,136.209],[125.284,135.839],[126.462,135.684],[127.628,135.57],[128.356,135.525],[128.999,135.502],[130.111,135.5],[149.737,135.501],[151.241,135.508],[152.296,135.564],[153.401,135.666],[154.654,135.828],[155.306,135.934],[156.365,136.134],[157.544,136.396],[158.674,136.689],[160.575,137.255],[162.166,137.792],[162.276,137.896],[162.401,138.101],[162.493,138.521],[162.5,139.149],[162.5,141.108],[162.499,141.489],[162.481,141.656],[162.413,141.895],[162.213,142.17],[162.119,142.221],[160.65,142.71],[158.681,143.301],[157.375,143.634],[155.99,143.932],[154.704,144.156],[152.775,144.391],[151.655,144.465],[150.38,144.5],[129.999,144.497],[128.746,144.486],[127.072,144.379],[125.783,144.225],[124.011,143.934],[122.43,143.592],[121.433,143.335],[120.055,142.936],[119.161,142.655],[117.833,142.202],[117.723,142.098],[117.599,141.893],[117.543,141.716],[117.5,140.988],[117.5,139.194]]
EXCLUDE_OBJECT_DEFINE NAME=4.5mm-prop.stl_id_4_copy_0 CENTER=140,170 POLYGON=[[117.5,169.194],[117.501,168.504],[117.519,168.337],[117.587,168.098],[117.788,167.824],[117.878,167.775],[119.424,167.259],[121.938,166.531],[123.295,166.209],[125.284,165.839],[126.462,165.684],[127.628,165.57],[128.356,165.525],[128.999,165.502],[130.111,165.5],[149.737,165.501],[151.241,165.508],[152.296,165.564],[153.401,165.666],[154.654,165.828],[155.306,165.934],[156.365,166.134],[157.544,166.396],[158.674,166.689],[160.575,167.255],[162.166,167.792],[162.276,167.896],[162.401,168.101],[162.493,168.521],[162.5,169.149],[162.5,171.108],[162.499,171.489],[162.481,171.656],[162.413,171.895],[162.213,172.17],[162.119,172.221],[160.65,172.71],[158.681,173.301],[157.375,173.634],[155.99,173.932],[154.704,174.156],[152.775,174.391],[151.655,174.465],[150.38,174.5],[129.999,174.497],[128.746,174.486],[127.072,174.379],[125.783,174.225],[124.011,173.934],[122.43,173.592],[121.433,173.335],[120.055,172.936],[119.161,172.655],[117.833,172.202],[117.723,172.098],[117.599,171.893],[117.543,171.716],[117.5,170.988],[117.5,169.194]]
EXCLUDE_OBJECT_DEFINE NAME=4.5mm-prop.stl_id_5_copy_0 CENTER=84,80 POLYGON=[[61.5,79.194],[61.501,78.504],[61.519,78.337],[61.587,78.098],[61.788,77.824],[61.878,77.775],[63.424,77.259],[65.938,76.531],[67.295,76.209],[69.284,75.839],[70.462,75.684],[71.628,75.57],[72.356,75.525],[72.999,75.502],[74.111,75.5],[93.737,75.501],[95.241,75.508],[96.296,75.564],[97.401,75.666],[98.654,75.828],[99.306,75.934],[100.365,76.134],[101.544,76.396],[102.674,76.689],[104.575,77.255],[106.166,77.792],[106.276,77.896],[106.401,78.101],[106.493,78.521],[106.5,79.149],[106.5,81.108],[106.499,81.489],[106.481,81.656],[106.413,81.895],[106.213,82.17],[106.119,82.221],[104.65,82.71],[102.681,83.301],[101.375,83.634],[99.99,83.932],[98.704,84.156],[96.775,84.391],[95.655,84.465],[94.38,84.5],[73.999,84.497],[72.746,84.486],[71.072,84.379],[69.783,84.225],[68.011,83.934],[66.43,83.592],[65.433,83.335],[64.055,82.936],[63.161,82.655],[61.833,82.202],[61.723,82.098],[61.599,81.893],[61.543,81.716],[61.5,80.988],[61.5,79.194]]
EXCLUDE_OBJECT_DEFINE NAME=4.5mm-prop.stl_id_6_copy_0 CENTER=84,50 POLYGON=[[61.5,49.194],[61.501,48.504],[61.519,48.337],[61.587,48.098],[61.788,47.824],[61.878,47.775],[63.424,47.259],[65.938,46.531],[67.295,46.209],[69.284,45.839],[70.462,45.684],[71.628,45.57],[72.356,45.525],[72.999,45.502],[74.111,45.5],[93.737,45.501],[95.241,45.508],[96.296,45.564],[97.401,45.666],[98.654,45.828],[99.306,45.934],[100.365,46.134],[101.544,46.396],[102.674,46.689],[104.575,47.255],[106.166,47.792],[106.276,47.896],[106.401,48.101],[106.493,48.521],[106.5,49.149],[106.5,51.108],[106.499,51.489],[106.481,51.656],[106.413,51.895],[106.213,52.17],[106.119,52.221],[104.65,52.71],[102.681,53.301],[101.375,53.634],[99.99,53.932],[98.704,54.156],[96.775,54.391],[95.655,54.465],[94.38,54.5],[73.999,54.497],[72.746,54.486],[71.072,54.379],[69.783,54.225],[68.011,53.934],[66.43,53.592],[65.433,53.335],[64.055,52.936],[63.161,52.655],[61.833,52.202],[61.723,52.098],[61.599,51.893],[61.543,51.716],[61.5,50.988],[61.5,49.194]]
EXCLUDE_OBJECT_DEFINE NAME=4.5mm-prop.stl_id_7_copy_0 CENTER=84,110 POLYGON=[[61.5,109.194],[61.501,108.504],[61.519,108.337],[61.587,108.098],[61.788,107.824],[61.878,107.775],[63.424,107.259],[65.938,106.531],[67.295,106.209],[69.284,105.839],[70.462,105.684],[71.628,105.57],[72.356,105.525],[72.999,105.502],[74.111,105.5],[93.737,105.501],[95.241,105.508],[96.296,105.564],[97.401,105.666],[98.654,105.828],[99.306,105.934],[100.365,106.134],[101.544,106.396],[102.674,106.689],[104.575,107.255],[106.166,107.792],[106.276,107.896],[106.401,108.101],[106.493,108.521],[106.5,109.149],[106.5,111.108],[106.499,111.489],[106.481,111.656],[106.413,111.895],[106.213,112.17],[106.119,112.221],[104.65,112.71],[102.681,113.301],[101.375,113.634],[99.99,113.932],[98.704,114.156],[96.775,114.391],[95.655,114.465],[94.38,114.5],[73.999,114.497],[72.746,114.486],[71.072,114.379],[69.783,114.225],[68.011,113.934],[66.43,113.592],[65.433,113.335],[64.055,112.936],[63.161,112.655],[61.833,112.202],[61.723,112.098],[61.599,111.893],[61.543,111.716],[61.5,110.988],[61.5,109.194]]
EXCLUDE_OBJECT_DEFINE NAME=4.5mm-prop.stl_id_8_copy_0 CENTER=84,140 POLYGON=[[61.5,139.194],[61.501,138.504],[61.519,138.337],[61.587,138.098],[61.788,137.824],[61.878,137.775],[63.424,137.259],[65.938,136.531],[67.295,136.209],[69.284,135.839],[70.462,135.684],[71.628,135.57],[72.356,135.525],[72.999,135.502],[74.111,135.5],[93.737,135.501],[95.241,135.508],[96.296,135.564],[97.401,135.666],[98.654,135.828],[99.306,135.934],[100.365,136.134],[101.544,136.396],[102.674,136.689],[104.575,137.255],[106.166,137.792],[106.276,137.896],[106.401,138.101],[106.493,138.521],[106.5,139.149],[106.5,141.108],[106.499,141.489],[106.481,141.656],[106.413,141.895],[106.213,142.17],[106.119,142.221],[104.65,142.71],[102.681,143.301],[101.375,143.634],[99.99,143.932],[98.704,144.156],[96.775,144.391],[95.655,144.465],[94.38,144.5],[73.999,144.497],[72.746,144.486],[71.072,144.379],[69.783,144.225],[68.011,143.934],[66.43,143.592],[65.433,143.335],[64.055,142.936],[63.161,142.655],[61.833,142.202],[61.723,142.098],[61.599,141.893],[61.543,141.716],[61.5,140.988],[61.5,139.194]]
EXCLUDE_OBJECT_DEFINE NAME=4.5mm-prop.stl_id_9_copy_0 CENTER=84,170 POLYGON=[[61.5,169.194],[61.501,168.504],[61.519,168.337],[61.587,168.098],[61.788,167.824],[61.878,167.775],[63.424,167.259],[65.938,166.531],[67.295,166.209],[69.284,165.839],[70.462,165.684],[71.628,165.57],[72.356,165.525],[72.999,165.502],[74.111,165.5],[93.737,165.501],[95.241,165.508],[96.296,165.564],[97.401,165.666],[98.654,165.828],[99.306,165.934],[100.365,166.134],[101.544,166.396],[102.674,166.689],[104.575,167.255],[106.166,167.792],[106.276,167.896],[106.401,168.101],[106.493,168.521],[106.5,169.149],[106.5,171.108],[106.499,171.489],[106.481,171.656],[106.413,171.895],[106.213,172.17],[106.119,172.221],[104.65,172.71],[102.681,173.301],[101.375,173.634],[99.99,173.932],[98.704,174.156],[96.775,174.391],[95.655,174.465],[94.38,174.5],[73.999,174.497],[72.746,174.486],[71.072,174.379],[69.783,174.225],[68.011,173.934],[66.43,173.592],[65.433,173.335],[64.055,172.936],[63.161,172.655],[61.833,172.202],[61.723,172.098],[61.599,171.893],[61.543,171.716],[61.5,170.988],[61.5,169.194]]
M73 P0 R42
M106 S0
M106 P2 S0
; max_print_temp = 55,280
;TYPE:Custom
START_PRINT EXTRUDER_TEMP=280 BED_TEMP=55
T0
M204 S2000
M104 S280
G1 Z3 F600
M83
G92 E0
G1 Z1 F600
G90
G21
M83 ; use relative distances for extrusion
SET_PRESSURE_ADVANCE ADVANCE=0.05; Override pressure advance value
G1 E-.8 F2100
G1 Z.2 F30000
M106 S0
;LAYER_CHANGE
;Z:0.2
;HEIGHT:0.2
;BEFORE_LAYER_CHANGE
;0.2
G92 E0

;AFTER_LAYER_CHANGE
;0.2
;_SET_FAN_SPEED_CHANGING_LAYER
SET_VELOCITY_LIMIT ACCEL=1000 ACCEL_TO_DECEL=1000
SET_VELOCITY_LIMIT SQUARE_CORNER_VELOCITY=6
; printing object 4.5mm-prop.stl id:6 copy 0
EXCLUDE_OBJECT_START NAME=4.5mm-prop.stl_id_6_copy_0
G1 X106.078 Y45.184 Z.6 F30000
G1 Z.2
G1 E.8 F2100
;TYPE:Support
;WIDTH:0.5
G1 F3600
G1 X108.955 Y45.184 E.10388
G1 X108.955 Y54.816 E.34774
G1 X106.078 Y54.816 E.10388
G1 X106.078 Y57.693 E.10388
G1 X61.922 Y57.693 E1.5943
G1 X61.922 Y54.816 E.10388
G1 X59.045 Y54.816 E.10388
G1 X59.045 Y45.184 E.34774
G1 X61.922 Y45.184 E.10388
G1 X61.922 Y42.307 E.10388
G1 X106.078 Y42.307 E1.5943
G1 X106.078 Y45.116 E.1014
G1 X83.696 Y47.569 F30000
G1 F3600
G3 X83.629 Y47.58 I.371 J2.423 E.55352
G1 X108.378 Y54.61 F30000
G1 F3600
G1 X108.378 Y45.596 E.32546
G1 X107.87 Y45.596 E.01834
G1 X107.87 Y54.404 E.31803
G1 X107.362 Y54.404 E.01834
G1 X107.362 Y45.596 E.31803
G1 X106.854 Y45.596 E.01834
G1 X106.854 Y54.404 E.31803
G1 X106.346 Y54.404 E.01834
G1 X106.346 Y45.596 E.31803
G1 X105.838 Y45.596 E.01834
G1 X105.838 Y54.404 E.31803
G1 X105.667 Y54.404 E.0062
G1 X105.667 Y57.281 E.10388
G1 X105.33 Y57.281 E.01214
G1 X105.33 Y42.719 E.52579
G1 X104.823 Y42.719 E.01834
G1 X104.823 Y57.281 E.52579
G1 X104.315 Y57.281 E.01834
G1 X104.315 Y42.719 E.52579
G1 X103.807 Y42.719 E.01834
G1 X103.807 Y57.281 E.52579
G1 X103.299 Y57.281 E.01834
G1 X103.299 Y42.719 E.52579
G1 X102.791 Y42.719 E.01834
G1 X102.791 Y57.281 E.52579
G1 X102.283 Y57.281 E.01834
G1 X102.283 Y42.719 E.52579
G1 X101.775 Y42.719 E.01834
